icons/ubuntu/ubuntu-plain.svg

<svg xmlns="http://www.w3.org/2000/svg" viewBox="0 0 128 128"><path fill="#DD4814" d="M64 3.246c-33.555 0-60.755 27.2-60.755 60.754 0 33.552 27.2 60.754 60.755 60.754 33.554 0 60.755-27.202 60.755-60.754 0-33.554-27.2-60.754-60.755-60.754zm13.631 20.922c2.242-3.881 7.2-5.21 11.08-2.972 3.88 2.242 5.208 7.2 2.966 11.08-2.238 3.88-7.197 5.208-11.077 2.967-3.877-2.239-5.206-7.198-2.969-11.075zm-13.631 4.595c3.262 0 6.417.453 9.414 1.281.529 3.259 2.463 6.262 5.548 8.042 3.079 1.775 6.642 1.953 9.725.789 5.998 5.898 9.901 13.919 10.47 22.854l-11.558.17c-1.067-12.103-11.222-21.593-23.599-21.593-3.565 0-6.948.792-9.98 2.203l-5.637-10.099c4.708-2.33 10.01-3.647 15.617-3.647zm-41.311 43.349c-4.482 0-8.113-3.632-8.113-8.112 0-4.481 3.63-8.113 8.113-8.113 4.479 0 8.111 3.631 8.111 8.113 0 4.479-3.632 8.112-8.111 8.112zm7.191.722c2.561-2.09 4.2-5.271 4.2-8.834 0-3.565-1.639-6.747-4.2-8.836 2.194-8.489 7.475-15.738 14.571-20.483l5.931 9.934c-6.092 4.287-10.074 11.369-10.074 19.385s3.981 15.098 10.074 19.383l-5.931 9.937c-7.099-4.744-12.38-11.995-14.571-20.486zm58.831 33.964c-3.879 2.241-8.838.912-11.077-2.969-2.241-3.877-.911-8.835 2.969-11.076 3.877-2.239 8.838-.908 11.077 2.969 2.24 3.88.91 8.839-2.969 11.076zm-.024-17.673c-3.083-1.166-6.645-.991-9.725.788-3.084 1.783-5.019 4.782-5.547 8.042-2.998.83-6.153 1.284-9.415 1.284-5.607 0-10.909-1.318-15.616-3.649l5.636-10.1c3.032 1.411 6.415 2.204 9.98 2.204 12.378 0 22.532-9.488 23.596-21.592l11.561.169c-.569 8.935-4.472 16.956-10.47 22.854z"/></svg>

<svg version="1.1" xmlns="http://www.w3.org/2000/svg" xmlns:xlink="http://www.w3.org/1999/xlink" viewBox="0 0 128 128">
<path fill="#DD4814" d="M64,3.246C30.445,3.246,3.245,30.446,3.245,64c0,33.552,27.2,60.754,60.755,60.754
	c33.554,0,60.755-27.202,60.755-60.754C124.755,30.446,97.555,3.246,64,3.246z M77.631,24.168c2.242-3.881,7.2-5.21,11.08-2.972
	c3.88,2.242,5.208,7.2,2.966,11.08c-2.238,3.88-7.197,5.208-11.077,2.967C76.723,33.004,75.394,28.045,77.631,24.168z M64,28.763
	c3.262,0,6.417,0.453,9.414,1.281c0.529,3.259,2.463,6.262,5.548,8.042c3.079,1.775,6.642,1.953,9.725,0.789
	c5.998,5.898,9.901,13.919,10.47,22.854l-11.558,0.17C86.532,49.796,76.377,40.306,64,40.306c-3.565,0-6.948,0.792-9.98,2.203
	L48.383,32.41C53.091,30.08,58.393,28.763,64,28.763z M22.689,72.112c-4.482,0-8.113-3.632-8.113-8.112
	c0-4.481,3.63-8.113,8.113-8.113c4.479,0,8.111,3.631,8.111,8.113C30.8,68.479,27.168,72.112,22.689,72.112z M29.88,72.834
	c2.561-2.09,4.2-5.271,4.2-8.834c0-3.565-1.639-6.747-4.2-8.836c2.194-8.489,7.475-15.738,14.571-20.483l5.931,9.934
	C44.29,48.902,40.308,55.984,40.308,64s3.981,15.098,10.074,19.383l-5.931,9.937C37.352,88.576,32.071,81.325,29.88,72.834z
	 M88.711,106.798c-3.879,2.241-8.838,0.912-11.077-2.969c-2.241-3.877-0.911-8.835,2.969-11.076
	c3.877-2.239,8.838-0.908,11.077,2.969C93.92,99.602,92.59,104.561,88.711,106.798z M88.687,89.125
	c-3.083-1.166-6.645-0.991-9.725,0.788c-3.084,1.783-5.019,4.782-5.547,8.042c-2.998,0.83-6.153,1.284-9.415,1.284
	c-5.607,0-10.909-1.318-15.616-3.649l5.636-10.1c3.032,1.411,6.415,2.204,9.98,2.204c12.378,0,22.532-9.488,23.596-21.592
	l11.561,0.169C98.588,75.206,94.685,83.227,88.687,89.125z"/>
</svg>
